dist/icons/payment-methods/paypal.svg

<svg width="38" height="24" xmlns="http://www.w3.org/2000/svg"><g fill-rule="nonzero" fill="none"><path d="M35 0H3C1.3 0 0 1.3 0 3v18c0 1.7 1.4 3 3 3h32c1.7 0 3-1.3 3-3V3c0-1.7-1.4-3-3-3z" fill="#000" opacity=".07"/><path d="M35 1c1.1 0 2 .9 2 2v18c0 1.1-.9 2-2 2H3c-1.1 0-2-.9-2-2V3c0-1.1.9-2 2-2h32" fill="#FFF"/><path d="M23.9 8.3c.2-1 0-1.7-.6-2.3-.6-.7-1.7-1-3.1-1h-4.1c-.3 0-.5.2-.6.5L14 15.6c0 .2.1.4.3.4H17l.4-3.4 1.8-2.2 4.7-2.1z" fill="#003087"/><path d="M23.9 8.3l-.2.2c-.5 2.8-2.2 3.8-4.6 3.8H18c-.3 0-.5.2-.6.5l-.6 3.9-.2 1c0 .2.1.4.3.4H19c.3 0 .5-.2.5-.4v-.1l.4-2.4v-.1c0-.2.3-.4.5-.4h.3c2.1 0 3.7-.8 4.1-3.2.2-1 .1-1.8-.4-2.4-.1-.5-.3-.7-.5-.8z" fill="#3086C8"/><path d="M23.3 8.1c-.1-.1-.2-.1-.3-.1-.1 0-.2 0-.3-.1-.3-.1-.7-.1-1.1-.1h-3c-.1 0-.2 0-.2.1-.2.1-.3.2-.3.4l-.7 4.4v.1c0-.3.3-.5.6-.5h1.3c2.5 0 4.1-1 4.6-3.8v-.2c-.1-.1-.3-.2-.5-.2h-.1z" fill="#012169"/></g></svg>

<?xml version="1.0" encoding="UTF-8"?>
<svg width="38px" height="24px" viewBox="0 0 38 24" version="1.1" xmlns="http://www.w3.org/2000/svg" xmlns:xlink="http://www.w3.org/1999/xlink">
    <title>paypal</title>
    <g id="Symbols" stroke="none" stroke-width="1" fill="none" fill-rule="evenodd">
        <g id="Footer/Links/Desktop" transform="translate(-1260.000000, -408.000000)" fill-rule="nonzero">
            <g id="paypal" transform="translate(1260.000000, 408.000000)">
                <path d="M35,0 L3,0 C1.3,0 0,1.3 0,3 L0,21 C0,22.7 1.4,24 3,24 L35,24 C36.7,24 38,22.7 38,21 L38,3 C38,1.3 36.6,0 35,0 Z" id="Path" fill="#000000" opacity="0.07"></path>
                <path d="M35,1 C36.1,1 37,1.9 37,3 L37,21 C37,22.1 36.1,23 35,23 L3,23 C1.9,23 1,22.1 1,21 L1,3 C1,1.9 1.9,1 3,1 L35,1" id="Path" fill="#FFFFFF"></path>
                <path d="M23.9,8.3 C24.1,7.3 23.9,6.6 23.3,6 C22.7,5.3 21.6,5 20.2,5 L16.1,5 C15.8,5 15.6,5.2 15.5,5.5 L14,15.6 C14,15.8 14.1,16 14.3,16 L17,16 L17.4,12.6 L19.2,10.4 L23.9,8.3 Z" id="Path" fill="#003087"></path>
                <path d="M23.9,8.3 L23.7,8.5 C23.2,11.3 21.5,12.3 19.1,12.3 L18,12.3 C17.7,12.3 17.5,12.5 17.4,12.8 L16.8,16.7 L16.6,17.7 C16.6,17.9 16.7,18.1 16.9,18.1 L19,18.1 C19.3,18.1 19.5,17.9 19.5,17.7 L19.5,17.6 L19.9,15.2 L19.9,15.1 C19.9,14.9 20.2,14.7 20.4,14.7 L20.7,14.7 C22.8,14.7 24.4,13.9 24.8,11.5 C25,10.5 24.9,9.7 24.4,9.1 C24.3,8.6 24.1,8.4 23.9,8.3 L23.9,8.3 Z" id="Path" fill="#3086C8"></path>
                <path d="M23.3,8.1 C23.2,8 23.1,8 23,8 C22.9,8 22.8,8 22.7,7.9 C22.4,7.8 22,7.8 21.6,7.8 L18.6,7.8 C18.5,7.8 18.4,7.8 18.4,7.9 C18.2,8 18.1,8.1 18.1,8.3 L17.4,12.7 L17.4,12.8 C17.4,12.5 17.7,12.3 18,12.3 L19.3,12.3 C21.8,12.3 23.4,11.3 23.9,8.5 L23.9,8.3 C23.8,8.2 23.6,8.1 23.4,8.1 L23.3,8.1 L23.3,8.1 Z" id="Path" fill="#012169"></path>
            </g>
        </g>
    </g>
</svg>
